static/assets/images/icons/solity.svg

<svg width="256" height="256" viewBox="0 0 256 256" fill="none" xmlns="http://www.w3.org/2000/svg">
<path d="M32.7856 130.858C41.5742 108.508 50.3863 86.1674 59.2219 63.8372C60.9571 59.4425 62.1039 55.5801 66.6055 53.3702C68.8387 52.2686 72.6932 50.9678 78.1689 49.4677C116.402 38.9807 142.429 31.9458 156.251 28.363C161.894 26.9015 167.653 30.0054 171.108 34.9375C195.764 70.1455 214.098 96.5021 226.109 114.007C228.518 117.518 227.96 120.732 226.345 124.811C215.873 151.313 205.395 177.812 194.909 204.307C192.651 210.018 188.858 211.173 182.682 212.308C155.367 217.317 128.051 222.323 100.732 227.326C97.4194 227.932 95.1426 228.129 93.9019 227.918C89.2947 227.125 86.3171 222.876 83.8827 219.737C56.2225 183.993 38.6234 161.179 31.0855 151.295C26.594 145.403 30.4015 136.925 32.7856 130.858ZM126.087 68.8999C126.057 68.916 126.032 68.9405 126.016 68.9705C125.999 69.0005 125.992 69.0347 125.994 69.0689C125.997 69.103 126.01 69.1356 126.031 69.1627C126.052 69.1898 126.08 69.2102 126.112 69.2213L168.931 83.5305C168.964 83.5426 169 83.5443 169.034 83.5355C169.069 83.5267 169.099 83.5078 169.123 83.4812C169.146 83.4546 169.161 83.4216 169.165 83.3865C169.17 83.3514 169.163 83.3158 169.147 83.2844L154.938 54.6309C154.928 54.6101 154.913 54.5914 154.896 54.5761C154.879 54.5608 154.858 54.5491 154.836 54.5416C154.814 54.5341 154.791 54.5311 154.768 54.5326C154.745 54.5341 154.722 54.5402 154.701 54.5505L126.087 68.8999ZM167.975 107.644C167.997 107.626 168.014 107.602 168.024 107.575C168.034 107.548 168.036 107.519 168.031 107.491C168.026 107.463 168.013 107.436 167.995 107.415C167.976 107.393 167.952 107.377 167.925 107.367L112.934 89.1005C112.907 89.0912 112.877 89.0896 112.848 89.096C112.82 89.1023 112.793 89.1163 112.772 89.1364C112.751 89.1566 112.736 89.1821 112.728 89.2103C112.72 89.2385 112.72 89.2683 112.728 89.2964L126.384 139.969C126.391 139.995 126.404 140.019 126.422 140.038C126.44 140.058 126.463 140.073 126.489 140.081C126.514 140.09 126.542 140.092 126.568 140.087C126.595 140.082 126.62 140.071 126.641 140.054L167.975 107.644ZM60.3938 136.046C60.3772 136.069 60.3665 136.095 60.3627 136.122C60.3589 136.15 60.3622 136.178 60.3722 136.204C60.3823 136.23 60.3987 136.253 60.4201 136.271C60.4414 136.289 60.467 136.302 60.4944 136.307L103.66 144.921C103.687 144.926 103.716 144.924 103.742 144.916C103.769 144.907 103.793 144.891 103.812 144.871C103.831 144.85 103.845 144.825 103.852 144.798C103.858 144.771 103.858 144.742 103.851 144.715L90.9797 96.8704C90.9719 96.8404 90.9559 96.8132 90.9334 96.7918C90.911 96.7705 90.883 96.7558 90.8526 96.7495C90.8222 96.7433 90.7907 96.7456 90.7616 96.7563C90.7325 96.767 90.707 96.7857 90.6879 96.8101L60.3938 136.046ZM173.87 180.325C173.895 180.34 173.923 180.349 173.952 180.351C173.982 180.352 174.011 180.346 174.037 180.333C174.064 180.32 174.086 180.3 174.103 180.276C174.119 180.252 174.129 180.223 174.131 180.194L178.381 129.21C178.385 129.177 178.378 129.143 178.363 129.114C178.347 129.084 178.323 129.06 178.293 129.043C178.264 129.027 178.23 129.02 178.197 129.023C178.163 129.026 178.131 129.039 178.105 129.06L140.14 158.808C140.118 158.825 140.101 158.847 140.089 158.872C140.077 158.898 140.072 158.925 140.074 158.953C140.075 158.981 140.083 159.007 140.098 159.031C140.112 159.055 140.132 159.075 140.155 159.09L173.87 180.325ZM92.8407 193.725C92.8581 193.748 92.8816 193.767 92.9086 193.779C92.9355 193.79 92.9651 193.794 92.9943 193.791C93.0234 193.787 93.0511 193.776 93.0745 193.758C93.0979 193.74 93.1161 193.717 93.1274 193.69L103.675 168.743C103.684 168.721 103.689 168.696 103.688 168.672C103.687 168.648 103.681 168.624 103.67 168.603C103.659 168.581 103.643 168.562 103.624 168.548C103.605 168.533 103.583 168.522 103.559 168.517L68.1497 161.299C68.1168 161.293 68.0827 161.296 68.0518 161.31C68.021 161.323 67.9949 161.345 67.9769 161.373C67.959 161.401 67.95 161.434 67.9512 161.468C67.9524 161.501 67.9637 161.534 67.9837 161.561L92.8407 193.725ZM125.373 177.09C125.354 177.078 125.332 177.071 125.309 177.068C125.287 177.066 125.264 177.068 125.242 177.075C125.221 177.083 125.201 177.094 125.184 177.11C125.168 177.126 125.155 177.145 125.147 177.166L114.956 201.123C114.945 201.149 114.941 201.178 114.944 201.206C114.948 201.234 114.959 201.26 114.977 201.283C114.994 201.305 115.018 201.322 115.044 201.332C115.071 201.342 115.1 201.344 115.127 201.339L152.473 194.433C152.503 194.427 152.531 194.412 152.552 194.39C152.574 194.368 152.588 194.341 152.594 194.311C152.6 194.281 152.597 194.25 152.585 194.221C152.574 194.193 152.554 194.169 152.529 194.152L125.373 177.09Z" fill="black"/>
</svg>

<svg xmlns="http://www.w3.org/2000/svg" fill="none" viewBox="0 0 256 256"><path fill="#000" d="M32.786 130.858q13.182-33.525 26.436-67.02c1.735-4.395 2.882-8.258 7.384-10.468q3.35-1.652 11.563-3.902 57.35-15.73 78.082-21.105c5.643-1.462 11.402 1.642 14.857 6.575q36.984 52.811 55.001 79.069c2.409 3.511 1.851 6.725.236 10.804q-15.708 39.753-31.436 79.496c-2.258 5.711-6.051 6.866-12.227 8.001a349369 349369 0 0 1-81.95 15.018q-4.97.909-6.83.592c-4.607-.793-7.585-5.042-10.02-8.181q-41.49-53.616-52.797-68.442c-4.491-5.892-.684-14.37 1.7-20.437M126.087 68.9a.18.18 0 0 0-.093.169.18.18 0 0 0 .118.152l42.819 14.31a.18.18 0 0 0 .192-.05.18.18 0 0 0 .024-.197l-14.209-28.653a.18.18 0 0 0-.102-.09.18.18 0 0 0-.135.01zm41.888 38.744a.16.16 0 0 0 .056-.153.16.16 0 0 0-.106-.124L112.934 89.1a.16.16 0 0 0-.162.036.16.16 0 0 0-.044.16l13.656 50.673a.16.16 0 0 0 .257.085zM60.394 136.046a.166.166 0 0 0 .1.261l43.166 8.614a.2.2 0 0 0 .082-.005.2.2 0 0 0 .07-.045.2.2 0 0 0 .04-.073.2.2 0 0 0-.001-.083L90.98 96.87a.166.166 0 0 0-.292-.06zm113.476 44.279a.2.2 0 0 0 .082.026.18.18 0 0 0 .151-.075.2.2 0 0 0 .028-.082l4.25-50.984a.17.17 0 0 0-.088-.167.17.17 0 0 0-.188.017l-37.965 29.748a.2.2 0 0 0-.051.064.16.16 0 0 0-.015.081.18.18 0 0 0 .081.137zm-81.03 13.4q.028.035.069.054a.2.2 0 0 0 .085.012.17.17 0 0 0 .133-.101l10.548-24.947a.164.164 0 0 0-.116-.226l-35.41-7.218a.17.17 0 0 0-.097.011.166.166 0 0 0-.068.251zm32.533-16.635a.16.16 0 0 0-.131-.015.2.2 0 0 0-.058.035.2.2 0 0 0-.037.056l-10.191 23.957a.2.2 0 0 0-.012.083.16.16 0 0 0 .1.126q.041.015.083.007l37.346-6.906a.15.15 0 0 0 .079-.043.155.155 0 0 0-.023-.238z"/></svg>
